app/assets/icons/google-plus.svg

<?xml version="1.0" encoding="UTF-8" standalone="no"?>
<svg width="512px" height="512px" viewBox="0 0 512 512" version="1.1" xmlns="http://www.w3.org/2000/svg" xmlns:xlink="http://www.w3.org/1999/xlink" xmlns:sketch="http://www.bohemiancoding.com/sketch/ns">
    <!-- Generator: Sketch 3.3.3 (12072) - http://www.bohemiancoding.com/sketch -->
    <title>google-plus</title>
    <desc>Created with Sketch.</desc>
    <defs></defs>
    <g id="Page-1" stroke="none" stroke-width="1" fill="none" fill-rule="evenodd" sketch:type="MSPage">
        <g id="google-plus" sketch:type="MSArtboardGroup" fill="#010202">
            <g sketch:type="MSLayerGroup" transform="translate(26.000000, 26.000000)" id="Group">
                <g sketch:type="MSShapeGroup">
                    <path d="M204.056,269.389222 C200.836,269.021956 198.72,269.021956 194.672,269.021956 C190.992,269.021956 168.912,269.848303 151.8,275.449102 C142.784,278.662675 116.656,288.303393 116.656,316.766467 C116.656,345.321357 144.808,365.796407 188.508,365.796407 C227.7,365.796407 248.584,347.249501 248.584,322.459082 C248.676,301.892216 235.152,291.057884 204.056,269.389222 L204.056,269.389222 Z" id="Shape"></path>
                    <path d="M226.228,164.718563 C226.228,135.796407 208.656,90.8063872 174.8,90.8063872 C164.128,90.8063872 152.72,95.0299401 146.188,103.017964 C139.288,111.46507 137.172,123.309381 137.172,133.776447 C137.172,160.678643 153.088,205.209581 188.232,205.209581 C198.444,205.209581 209.484,199.42515 216.016,192.998004 C225.4,183.816367 226.228,171.972056 226.228,164.718563 L226.228,164.718563 Z" id="Shape"></path>
                    <path d="M436.08,0 L23.92,0 C11.132,0.183632735 0.828,10.0998004 0,22.5868263 L0,436.49501 C0.736,448.61477 10.488,458.347305 22.724,459.081836 L437.276,459.081836 C449.972,458.347305 460,447.788423 460,434.934132 L460,24.1477046 C460,10.9261477 449.328,0.183632735 436.08,0 L436.08,0 Z M167.44,382.874251 C108.192,382.874251 80.776,354.870259 80.776,325.121756 C80.776,310.61477 88.136,290.231537 112.24,276.091816 C137.54,260.850299 171.856,258.830339 190.256,257.636727 C184.552,250.383234 178.02,242.762475 178.02,230.367265 C178.02,223.572854 180.044,219.532934 182.068,214.666667 C177.56,215.033932 173.052,215.493014 169.004,215.493014 C125.764,215.493014 101.2,183.724551 101.2,152.506986 C101.2,134.051896 106.996,112.199601 124.476,97.3253493 C147.844,78.502994 177.56,76.2075848 199.64,76.2075848 L284.74,76.2075848 L258.336,92.3672655 L234.14,92.3672655 C243.524,99.988024 262.108,114.770459 262.108,145.253493 C262.108,174.91018 244.996,189.0499 227.792,202.271457 C222.456,207.50499 216.384,213.105788 216.384,221.92016 C216.384,230.734531 222.548,235.600798 226.964,239.181637 L241.684,250.383234 C259.624,265.257485 276,278.938124 276,306.666667 C276,344.49501 237.728,382.874251 167.44,382.874251 L167.44,382.874251 Z M386.308,232.295409 L345.92,232.295409 L345.92,272.602794 L325.22,272.602794 L325.22,232.295409 L284.832,232.295409 L284.832,212.55489 L325.22,212.55489 L325.22,172.247505 L345.92,172.247505 L345.92,212.55489 L386.308,212.55489 L386.308,232.295409 L386.308,232.295409 Z" id="Shape"></path>
                </g>
            </g>
        </g>
    </g>
</svg>

<?xml version="1.0" encoding="utf-8"?>
<!-- Generator: Adobe Illustrator 19.2.1, SVG Export Plug-In . SVG Version: 6.00 Build 0)  -->
<svg version="1.1" id="Calque_1" xmlns:sketch="http://www.bohemiancoding.com/sketch/ns"
	 xmlns="http://www.w3.org/2000/svg" xmlns:xlink="http://www.w3.org/1999/xlink" x="0px" y="0px" width="512px" height="512px"
	 viewBox="0 0 512 512" enable-background="new 0 0 512 512" xml:space="preserve">
<title>google-plus</title>
<desc>Created with Sketch.</desc>
<g id="Page-1" sketch:type="MSPage">
	<g id="google-plus" sketch:type="MSArtboardGroup">
		<g id="Group" transform="translate(26.000000, 26.000000)" sketch:type="MSLayerGroup">
			<g sketch:type="MSShapeGroup">
				<path id="Shape" fill="#010202" d="M204.1,269.4c-3.2-0.4-5.3-0.4-9.4-0.4c-3.7,0-25.8,0.8-42.9,6.4c-9,3.2-35.1,12.9-35.1,41.3
					c0,28.6,28.2,49,71.9,49c39.2,0,60.1-18.5,60.1-43.3C248.7,301.9,235.2,291.1,204.1,269.4L204.1,269.4z"/>
				<path id="Shape_1_" fill="#010202" d="M226.2,164.7c0-28.9-17.6-73.9-51.4-73.9c-10.7,0-22.1,4.2-28.6,12.2
					c-6.9,8.4-9,20.3-9,30.8c0,26.9,15.9,71.4,51.1,71.4c10.2,0,21.3-5.8,27.8-12.2C225.4,183.8,226.2,172,226.2,164.7L226.2,164.7z
					"/>
				<path id="Shape_2_" fill="#010202" d="M436.1,0H23.9C11.1,0.2,0.8,10.1,0,22.6v413.9c0.7,12.1,10.5,21.9,22.7,22.6h414.6
					c12.7-0.7,22.7-11.3,22.7-24.1V24.1C460,10.9,449.3,0.2,436.1,0L436.1,0z M167.4,382.9c-59.2,0-86.7-28-86.7-57.8
					c0-14.5,7.4-34.9,31.5-49c25.3-15.2,59.6-17.3,78-18.5c-5.7-7.3-12.2-14.9-12.2-27.3c0-6.8,2-10.8,4-15.7
					c-4.5,0.4-9,0.8-13.1,0.8c-43.2,0-67.8-31.8-67.8-63c0-18.5,5.8-40.3,23.3-55.2c23.4-18.8,53.1-21.1,75.2-21.1h85.1l-26.4,16.2
					h-24.2c9.4,7.6,28,22.4,28,52.9c0,29.7-17.1,43.8-34.3,57c-5.3,5.2-11.4,10.8-11.4,19.6c0,8.8,6.2,13.7,10.6,17.3l14.7,11.2
					c17.9,14.9,34.3,28.6,34.3,56.3C276,344.5,237.7,382.9,167.4,382.9L167.4,382.9z M386.3,232.3h-40.4v40.3h-20.7v-40.3h-40.4
					v-19.7h40.4v-40.3h20.7v40.3h40.4V232.3L386.3,232.3z"/>
			</g>
		</g>
	</g>
</g>
</svg>
